X:1
T:Wild Goose
M:3/4
L:1/4
K:C
 E| A, A,3/2 A,/2| E E3/2 E/2| ^F F D| E E z/2 E/2| A, A,3/2 A,/2|\
 E E E| ^F3/2 F/2 D| E2 E-| E2 z| F F3/2 F/2| A c c| d3/2 c/2 d| A2 z|\
 c A3/2 A/2| c A A| F3/2 F/2 F| E2 A,3/4 A,/4| E2 E-| E2 z/2 E/2| G3|\
 E2 C| D D3/2 E/2| C C3/2 C/2| D B,/2 B,3/2| A,3-| A, z||

